images/company5.svg

<svg width="119" height="40" viewBox="0 0 119 40" fill="none" xmlns="http://www.w3.org/2000/svg">
<g id="Frame" clip-path="url(#clip0_282_1455)">
<g id="Clip path group">
<mask id="mask0_282_1455" style="mask-type:luminance" maskUnits="userSpaceOnUse" x="0" y="0" width="119" height="40">
<g id="a">
<path id="Vector" d="M0.945312 0H118.187V40H0.945312V0Z" fill="white"/>
</g>
</mask>
<g mask="url(#mask0_282_1455)">
<g id="Group">
<path id="Vector_2" d="M0.945312 4.33104L6.98669 26.9241H10.4626L14.7936 10.5104L19.0557 26.9241H22.5453L28.5867 4.33104H25.1108L20.835 20.7448L16.4626 4.33104H13.0143L8.69704 20.7448L4.40738 4.33104H0.945312ZM42.9729 26.9379C42.6281 18.8966 45.5108 7.15863 33.635 11.7104C33.7315 10.331 33.7039 5.55863 33.7039 4.15173L30.2281 4.44139V26.9379H33.7039V14.4828C36.1867 13.8621 39.4832 13.0207 39.4832 17.3793V26.9517H42.9729V26.9379ZM47.7039 4.63449C44.8074 4.49656 44.8764 9.31035 47.7039 9.17242C50.5453 9.31035 50.6695 4.48277 47.7039 4.6207V4.63449ZM49.4419 11.0345H45.966V26.9241H49.4419V11.0345ZM58.4626 14.1379C59.1108 14.1517 59.7729 14.2207 60.4212 14.3448V10.8276C59.5294 10.7249 58.626 10.8066 57.767 11.0676C56.9081 11.3286 56.112 11.7634 55.4281 12.3448H55.2074L54.766 11.0345H52.3936V26.8966H55.8694V14.8138C56.6733 14.3869 57.5664 14.1553 58.4763 14.1379H58.4626ZM61.9108 4.4138V26.9241H65.3867V4.11035L61.9246 4.40001L61.9108 4.4138ZM90.0074 27.2552C99.4695 28.1104 99.2212 9.8207 90.0626 10.8138C80.7936 9.8207 80.435 28.0552 90.0074 27.2552ZM90.1039 13.6C94.7108 13.2552 94.6143 24.869 89.9522 24.4414C85.1798 24.6897 85.3729 13.131 90.0901 13.6H90.1039Z" fill="white"/>
<path id="Vector_3" d="M98.6699 19.0483C97.5665 30 113.594 30.0276 112.463 19.0483C113.704 7.98622 97.5389 8.09657 98.6699 19.0483ZM108.932 19.0483C109.663 26.2483 101.415 26.1379 102.173 19.0483C101.484 11.8207 109.76 11.7242 108.932 19.0483ZM114.711 4.41381V26.9242H118.187V4.11036L114.711 4.40002V4.41381ZM85.8699 1.26898C83.263 -1.82067 75.0423 0.896567 65.8285 7.42071V9.07588C91.0285 -8.30343 85.4148 10.1793 72.132 22.0138C62.1458 32.9104 36.1044 46.9793 48.0354 26.9242H46.4079C34.6147 46.3173 53.4837 41.7931 68.6837 28.5793C75.1113 23.1724 89.8561 8.67588 85.8699 1.26898Z" fill="white"/>
<path id="Vector_4" d="M78.4887 19.5174L78.13 19.9174C77.7852 23.3795 76.3645 24.1381 74.2542 24.0553C72.4883 25.8315 70.6331 27.5165 68.6956 29.1036V34.5105L72.1714 34.1243V26.8415C78.8059 28.9657 83.2335 23.1864 81.4542 15.8484C80.5088 17.1057 79.5197 18.3294 78.4887 19.5174ZM71.868 21.7243L72.1438 21.4484V14.6898C73.799 14.0967 76.5576 13.8622 77.5783 15.4622C78.3808 14.4587 79.1491 13.4282 79.8818 12.3726C77.7162 9.88981 74.0887 10.8002 71.5645 12.1933L71.2887 11.0346H68.668V24.7036C69.7775 23.7526 70.8496 22.7588 71.8818 21.7243H71.868Z" fill="white"/>
</g>
</g>
</g>
</g>
<defs>
<clipPath id="clip0_282_1455">
<rect width="117.241" height="40" fill="white" transform="translate(0.945312)"/>
</clipPath>
</defs>
</svg>

<svg width="119" height="40" fill="none" xmlns="http://www.w3.org/2000/svg"><g clip-path="url(#a)"><mask id="b" style="mask-type:luminance" maskUnits="userSpaceOnUse" x="0" y="0" width="119" height="40"><path d="M.945 0h117.242v40H.945V0Z" fill="#fff"/></mask><g fill="#fff" mask="url(#b)"><path d="m.945 4.331 6.042 22.593h3.476l4.33-16.414 4.263 16.414h3.49l6.04-22.593h-3.475l-4.276 16.414L16.463 4.33h-3.449L8.697 20.745 4.407 4.33H.945Zm42.028 22.607c-.345-8.041 2.538-19.78-9.338-15.228.096-1.379.069-6.151.069-7.558l-3.476.29v22.496h3.476V14.483c2.483-.62 5.78-1.462 5.78 2.896v9.573h3.489v-.014Zm4.73-22.304c-2.896-.137-2.827 4.676 0 4.538 2.842.138 2.966-4.69 0-4.551v.013Zm1.739 6.4h-3.476v15.89h3.476v-15.89Zm9.02 3.104c.649.014 1.31.083 1.96.207v-3.517a6.552 6.552 0 0 0-4.994 1.517h-.22l-.442-1.31h-2.372v15.862h3.475V14.814a5.795 5.795 0 0 1 2.607-.676h-.013Zm3.449-9.724v22.51h3.476V4.11l-3.462.29-.014.014Zm28.096 22.841c9.462.855 9.214-17.434.056-16.441-9.27-.993-9.628 17.241-.056 16.441Zm.097-13.655c4.607-.345 4.51 11.269-.152 10.841-4.772.249-4.58-11.31.138-10.841h.014Z"/><path d="M98.67 19.048c-1.103 10.952 14.924 10.98 13.793 0 1.241-11.062-14.924-10.951-13.793 0Zm10.262 0c.731 7.2-7.517 7.09-6.759 0-.689-7.227 7.587-7.324 6.759 0Zm5.779-14.634v22.51h3.476V4.11l-3.476.29v.014ZM85.87 1.269c-2.607-3.09-10.828-.372-20.041 6.152v1.655c25.2-17.38 19.586 1.103 6.303 12.938-9.986 10.896-36.028 24.965-24.097 4.91h-1.627c-11.793 19.393 7.076 14.87 22.276 1.655C75.11 23.172 89.856 8.676 85.87 1.27Z"/><path d="m78.489 19.517-.359.4c-.345 3.462-1.765 4.221-3.876 4.138a73.65 73.65 0 0 1-5.558 5.049v5.407l3.475-.387v-7.283c6.635 2.125 11.063-3.655 9.283-10.993a67.38 67.38 0 0 1-2.965 3.67Zm-6.621 2.207.276-.276V14.69c1.655-.593 4.414-.828 5.434.772a56.854 56.854 0 0 0 2.304-3.09c-2.166-2.482-5.793-1.572-8.318-.179l-.275-1.158h-2.621v13.669a56.28 56.28 0 0 0 3.214-2.98h-.014Z"/></g></g><defs><clipPath id="a"><path fill="#fff" transform="translate(.945)" d="M0 0h117.241v40H0z"/></clipPath></defs></svg>
